X:651
T:Miss Johnston of Hilton
R:Reel
B:The Athole Collection
M:C|
L:1/8
K:E Minor
f|eEEF B2 B^c|dBAd FDAF|EFGA B2 Bg|f^dBd e/e/e e:|
f|eBef gbeg|fada fdaf|eBef gbeg|f^dBd e/e/e ef|eBge gbeg|
fdad fadf|gbag fdag|f^dBd e/e/e e||

